images/portal/5813.svg

<?xml version="1.0" standalone="no"?><!DOCTYPE svg PUBLIC "-//W3C//DTD SVG 1.1//EN" "http://www.w3.org/Graphics/SVG/1.1/DTD/svg11.dtd"><svg xmlns:xlink="http://www.w3.org/1999/xlink" version="1.1" class="highcharts-root" style="font-family:arial;font-size:12px;" xmlns="http://www.w3.org/2000/svg" width="485" height="415"><desc>Created with Highstock 5.0.14</desc><defs><clipPath id="highcharts-6vviqhi-6"><rect x="0" y="0" width="429" height="308" fill="none"></rect></clipPath><clipPath id="highcharts-6vviqhi-7"><rect x="0" y="0" width="429" height="308" fill="none"></rect></clipPath></defs><rect fill="#fbfbfb" class="highcharts-background" x="0" y="0" width="485" height="415" rx="0" ry="0"></rect><rect fill="none" class="highcharts-plot-background" x="46" y="41" width="429" height="308"></rect><g class="highcharts-pane-group"></g><g class="highcharts-grid highcharts-xaxis-grid "><path fill="none" class="highcharts-grid-line" d="M 49.5 41 L 49.5 349" opacity="1"></path><path fill="none" class="highcharts-grid-line" d="M 96.5 41 L 96.5 349" opacity="1"></path><path fill="none" class="highcharts-grid-line" d="M 143.5 41 L 143.5 349" opacity="1"></path><path fill="none" class="highcharts-grid-line" d="M 189.5 41 L 189.5 349" opacity="1"></path><path fill="none" class="highcharts-grid-line" d="M 236.5 41 L 236.5 349" opacity="1"></path><path fill="none" class="highcharts-grid-line" d="M 283.5 41 L 283.5 349" opacity="1"></path><path fill="none" class="highcharts-grid-line" d="M 330.5 41 L 330.5 349" opacity="1"></path><path fill="none" class="highcharts-grid-line" d="M 376.5 41 L 376.5 349" opacity="1"></path><path fill="none" class="highcharts-grid-line" d="M 423.5 41 L 423.5 349" opacity="1"></path><path fill="none" class="highcharts-grid-line" d="M 470.5 41 L 470.5 349" opacity="1"></path></g><g class="highcharts-grid highcharts-yaxis-grid "><path fill="none" stroke="#B9CFD7" stroke-width="0.5" class="highcharts-grid-line" d="M 46 349.25 L 475 349.25" opacity="1"></path><path fill="none" stroke="#B9CFD7" stroke-width="0.5" class="highcharts-grid-line" d="M 46 272.25 L 475 272.25" opacity="1"></path><path fill="none" stroke="#B9CFD7" stroke-width="0.5" class="highcharts-grid-line" d="M 46 195.25 L 475 195.25" opacity="1"></path><path fill="none" stroke="#B9CFD7" stroke-width="0.5" class="highcharts-grid-line" d="M 46 118.25 L 475 118.25" opacity="1"></path><path fill="none" stroke="#B9CFD7" stroke-width="0.5" class="highcharts-grid-line" d="M 46 40.75 L 475 40.75" opacity="1"></path></g><rect fill="none" class="highcharts-plot-border" x="46" y="41" width="429" height="308"></rect><g class="highcharts-axis highcharts-xaxis "><path fill="none" class="highcharts-axis-line" stroke="#B9CFD7" stroke-width="0.5" d="M 46 349.25 L 475 349.25"></path></g><g class="highcharts-axis highcharts-yaxis "><path fill="none" class="highcharts-axis-line" d="M 46 41 L 46 349"></path></g><g class="highcharts-series-group"><g class="highcharts-series highcharts-series-0 highcharts-line-series highcharts-color-undefined " transform="translate(46,41) scale(1 1)" clip-path="url(#highcharts-6vviqhi-7)"><path fill="none" d="M 4.2058823529426 73.83927539024808 L 27.571895424838 70.45643089603118 L 50.937908496733 106.5514634451313 L 74.303921568628 91.10692669805033 L 97.669934640524 103.55559821840001 L 121.03594771242 98.17865709735008 L 144.40196078431 86.34719613630264 L 167.76797385621 73.91999999999999 L 191.1339869281 91.48625606912174 L 214.5 92.1629909682836 L 237.8660130719 117.03999999999999 L 261.23202614379 166.32 L 284.59803921569 193.3859534061421 L 307.96405228758 78.63829787234036 L 331.33006535948 235.1963995310314 L 354.69607843137 255.51371305029215 L 378.06209150327 272.52780519907867 L 401.42810457516 256.17376712974203 L 424.79411764706 243.817358671502" class="highcharts-graph" stroke="#83522E" stroke-width="2" stroke-linejoin="round" stroke-linecap="round"></path></g><g class="highcharts-markers highcharts-series-0 highcharts-line-series highcharts-color-undefined " transform="translate(46,41) scale(1 1)" clip-path="none"><path fill="#83522E" d="M 8 74 A 4 4 0 1 1 7.999998000000167 73.99600000066667 Z" class="highcharts-point"></path><path fill="#83522E" d="M 31 70 A 4 4 0 1 1 30.99999800000017 69.99600000066667 Z" class="highcharts-point"></path><path fill="#83522E" d="M 54 107 A 4 4 0 1 1 53.99999800000017 106.99600000066667 Z" class="highcharts-point"></path><path fill="#83522E" d="M 78 91 A 4 4 0 1 1 77.99999800000016 90.99600000066667 Z" class="highcharts-point"></path><path fill="#83522E" d="M 101 104 A 4 4 0 1 1 100.99999800000016 103.99600000066667 Z" class="highcharts-point"></path><path fill="#83522E" d="M 125 98 A 4 4 0 1 1 124.99999800000016 97.99600000066667 Z" class="highcharts-point"></path><path fill="#83522E" d="M 148 86 A 4 4 0 1 1 147.99999800000018 85.99600000066667 Z" class="highcharts-point"></path><path fill="#83522E" d="M 171 74 A 4 4 0 1 1 170.99999800000018 73.99600000066667 Z" class="highcharts-point"></path><path fill="#83522E" d="M 195 91 A 4 4 0 1 1 194.99999800000018 90.99600000066667 Z" class="highcharts-point"></path><path fill="#83522E" d="M 218 92 A 4 4 0 1 1 217.99999800000018 91.99600000066667 Z" class="highcharts-point"></path><path fill="#83522E" d="M 241 117 A 4 4 0 1 1 240.99999800000018 116.99600000066667 Z" class="highcharts-point"></path><path fill="#83522E" d="M 265 166 A 4 4 0 1 1 264.9999980000002 165.99600000066667 Z" class="highcharts-point"></path><path fill="#83522E" d="M 288 193 A 4 4 0 1 1 287.9999980000002 192.99600000066667 Z" class="highcharts-point"></path><path fill="#83522E" d="M 311 79 A 4 4 0 1 1 310.9999980000002 78.99600000066667 Z" class="highcharts-point"></path><path fill="#83522E" d="M 335 235 A 4 4 0 1 1 334.9999980000002 234.99600000066667 Z" class="highcharts-point"></path><path fill="#83522E" d="M 358 256 A 4 4 0 1 1 357.9999980000002 255.99600000066667 Z" class="highcharts-point"></path><path fill="#83522E" d="M 382 273 A 4 4 0 1 1 381.9999980000002 272.99600000066664 Z" class="highcharts-point"></path><path fill="#83522E" d="M 405 256 A 4 4 0 1 1 404.9999980000002 255.99600000066667 Z" class="highcharts-point"></path><path fill="#83522E" d="M 428 244 A 4 4 0 1 1 427.9999980000002 243.99600000066667 Z" class="highcharts-point"></path></g></g><text x="10" text-anchor="start" class="highcharts-title" style="color:#000000;font-size:14px;font-weight:bold;fill:#000000;" y="21"><tspan>Leerwohnungsquote</tspan></text><g class="highcharts-data-labels highcharts-series-0 highcharts-line-series highcharts-color-undefined " visibility="visible" transform="translate(46,41) scale(1 1)"><g class="highcharts-label highcharts-data-label highcharts-data-label-color-undefined " transform="translate(-5,81)"><text x="5" style="font-size:11px;font-weight:bold;color:#000000;fill:#000000;" y="16"><tspan x="5" y="16" class="highcharts-text-outline" fill="#FFFFFF" stroke="#FFFFFF" stroke-width="2px" stroke-linejoin="round" style="">1,5</tspan><tspan x="5" y="16">1,5</tspan></text></g><g class="highcharts-label highcharts-data-label highcharts-data-label-color-undefined " transform="translate(23,90)"><text x="5" style="font-size:11px;font-weight:bold;color:#000000;fill:#000000;" y="16"></text></g><g class="highcharts-label highcharts-data-label highcharts-data-label-color-undefined " transform="translate(46,127)"><text x="5" style="font-size:11px;font-weight:bold;color:#000000;fill:#000000;" y="16"></text></g><g class="highcharts-label highcharts-data-label highcharts-data-label-color-undefined " transform="translate(69,111)"><text x="5" style="font-size:11px;font-weight:bold;color:#000000;fill:#000000;" y="16"></text></g><g class="highcharts-label highcharts-data-label highcharts-data-label-color-undefined " transform="translate(93,124)"><text x="5" style="font-size:11px;font-weight:bold;color:#000000;fill:#000000;" y="16"></text></g><g class="highcharts-label highcharts-data-label highcharts-data-label-color-undefined " transform="translate(116,118)"><text x="5" style="font-size:11px;font-weight:bold;color:#000000;fill:#000000;" y="16"></text></g><g class="highcharts-label highcharts-data-label highcharts-data-label-color-undefined " transform="translate(139,106)"><text x="5" style="font-size:11px;font-weight:bold;color:#000000;fill:#000000;" y="16"></text></g><g class="highcharts-label highcharts-data-label highcharts-data-label-color-undefined " transform="translate(163,94)"><text x="5" style="font-size:11px;font-weight:bold;color:#000000;fill:#000000;" y="16"></text></g><g class="highcharts-label highcharts-data-label highcharts-data-label-color-undefined " transform="translate(186,111)"><text x="5" style="font-size:11px;font-weight:bold;color:#000000;fill:#000000;" y="16"></text></g><g class="highcharts-label highcharts-data-label highcharts-data-label-color-undefined " transform="translate(210,112)"><text x="5" style="font-size:11px;font-weight:bold;color:#000000;fill:#000000;" y="16"></text></g><g class="highcharts-label highcharts-data-label highcharts-data-label-color-undefined " transform="translate(233,137)"><text x="5" style="font-size:11px;font-weight:bold;color:#000000;fill:#000000;" y="16"></text></g><g class="highcharts-label highcharts-data-label highcharts-data-label-color-undefined " transform="translate(256,186)"><text x="5" style="font-size:11px;font-weight:bold;color:#000000;fill:#000000;" y="16"></text></g><g class="highcharts-label highcharts-data-label highcharts-data-label-color-undefined " transform="translate(280,213)"><text x="5" style="font-size:11px;font-weight:bold;color:#000000;fill:#000000;" y="16"></text></g><g class="highcharts-label highcharts-data-label highcharts-data-label-color-undefined " transform="translate(303,99)"><text x="5" style="font-size:11px;font-weight:bold;color:#000000;fill:#000000;" y="16"></text></g><g class="highcharts-label highcharts-data-label highcharts-data-label-color-undefined " transform="translate(326,255)"><text x="5" style="font-size:11px;font-weight:bold;color:#000000;fill:#000000;" y="16"></text></g><g class="highcharts-label highcharts-data-label highcharts-data-label-color-undefined " transform="translate(350,276)"><text x="5" style="font-size:11px;font-weight:bold;color:#000000;fill:#000000;" y="16"></text></g><g class="highcharts-label highcharts-data-label highcharts-data-label-color-undefined " transform="translate(373,293)"><text x="5" style="font-size:11px;font-weight:bold;color:#000000;fill:#000000;" y="16"></text></g><g class="highcharts-label highcharts-data-label highcharts-data-label-color-undefined " transform="translate(396,276)"><text x="5" style="font-size:11px;font-weight:bold;color:#000000;fill:#000000;" y="16"></text></g><g class="highcharts-label highcharts-data-label highcharts-data-label-color-undefined " transform="translate(409,251)"><text x="5" style="font-size:11px;font-weight:bold;color:#000000;fill:#000000;" y="16"><tspan x="5" y="16" class="highcharts-text-outline" fill="#FFFFFF" stroke="#FFFFFF" stroke-width="2px" stroke-linejoin="round">0,4</tspan><tspan x="5" y="16">0,4</tspan></text></g></g><g class="highcharts-axis-labels highcharts-xaxis-labels "><text x="50.20588235294264" style="color:#000000;cursor:default;font-size:11px;fill:#000000;" text-anchor="middle" transform="translate(0,0)" y="368" opacity="1">1998</text><text x="96.93790849673317" style="color:#000000;cursor:default;font-size:11px;fill:#000000;" text-anchor="middle" transform="translate(0,0)" y="368" opacity="1">2000</text><text x="143.6699346405237" style="color:#000000;cursor:default;font-size:11px;fill:#000000;" text-anchor="middle" transform="translate(0,0)" y="368" opacity="1">2002</text><text x="190.4019607843142" style="color:#000000;cursor:default;font-size:11px;fill:#000000;" text-anchor="middle" transform="translate(0,0)" y="368" opacity="1">2004</text><text x="237.13398692810475" style="color:#000000;cursor:default;font-size:11px;fill:#000000;" text-anchor="middle" transform="translate(0,0)" y="368" opacity="1">2006</text><text x="283.8660130718953" style="color:#000000;cursor:default;font-size:11px;fill:#000000;" text-anchor="middle" transform="translate(0,0)" y="368" opacity="1">2008</text><text x="330.5980392156858" style="color:#000000;cursor:default;font-size:11px;fill:#000000;" text-anchor="middle" transform="translate(0,0)" y="368" opacity="1">2010</text><text x="377.33006535947635" style="color:#000000;cursor:default;font-size:11px;fill:#000000;" text-anchor="middle" transform="translate(0,0)" y="368" opacity="1">2012</text><text x="424.06209150326686" style="color:#000000;cursor:default;font-size:11px;fill:#000000;" text-anchor="middle" transform="translate(0,0)" y="368" opacity="1">2014</text><text x="462.78125" style="color:#000000;cursor:default;font-size:11px;fill:#000000;" text-anchor="middle" transform="translate(0,0)" y="368" opacity="1">2016</text></g><g class="highcharts-axis-labels highcharts-yaxis-labels "><text x="31" style="color:#000000;cursor:default;font-size:11px;fill:#000000;" text-anchor="end" transform="translate(0,0)" y="354" opacity="1"><tspan>0.00</tspan></text><text x="31" style="color:#000000;cursor:default;font-size:11px;fill:#000000;" text-anchor="end" transform="translate(0,0)" y="277" opacity="1"><tspan>0.50</tspan></text><text x="31" style="color:#000000;cursor:default;font-size:11px;fill:#000000;" text-anchor="end" transform="translate(0,0)" y="200" opacity="1"><tspan>1.00</tspan></text><text x="31" style="color:#000000;cursor:default;font-size:11px;fill:#000000;" text-anchor="end" transform="translate(0,0)" y="123" opacity="1"><tspan>1.50</tspan></text><text x="31" style="color:#000000;cursor:default;font-size:11px;fill:#000000;" text-anchor="end" transform="translate(0,0)" y="46" opacity="1"><tspan>2.00</tspan></text></g><text x="10" class="highcharts-credits" text-anchor="start" style="cursor:default;color:#000000;font-size:10px;fill:#000000;" y="400"><tspan>Quelle: Statistisches Amt Basel-Stadt, kantonale Leerstandserhebung</tspan></text></svg>

<svg class="highcharts-root" xmlns="http://www.w3.org/2000/svg" width="485" height="415" font-family="arial" font-size="12">
    <defs>
        <clipPath id="a">
            <path fill="none" d="M0 0h429v308H0z"/>
        </clipPath>
    </defs>
    <rect fill="#fbfbfb" class="highcharts-background" width="485" height="415" rx="0" ry="0"/>
    <path fill="none" class="highcharts-plot-background" d="M46 41h429v308H46z"/>
    <g class="highcharts-grid highcharts-xaxis-grid">
        <path fill="none" class="highcharts-grid-line" d="M49.5 41v308m47-308v308m47-308v308m46-308v308m47-308v308m47-308v308m47-308v308m46-308v308m47-308v308m47-308v308"/>
    </g>
    <g class="highcharts-grid highcharts-yaxis-grid">
        <path fill="none" stroke="#B9CFD7" stroke-width=".5" class="highcharts-grid-line" d="M46 349.25h429m-429-77h429m-429-77h429m-429-77h429M46 40.75h429"/>
    </g>
    <path fill="none" class="highcharts-plot-border" d="M46 41h429v308H46z"/>
    <g class="highcharts-axis highcharts-xaxis">
        <path fill="none" class="highcharts-axis-line" stroke="#B9CFD7" stroke-width=".5" d="M46 349.25h429"/>
    </g>
    <g class="highcharts-axis highcharts-yaxis">
        <path fill="none" class="highcharts-axis-line" d="M46 41v308"/>
    </g>
    <g class="highcharts-series-group">
        <g class="highcharts-series highcharts-series-0 highcharts-line-series highcharts-color-undefined" transform="translate(46 41)" clip-path="url(#a)">
            <path fill="none" d="M4.206 73.84l23.366-3.384 23.366 36.095 23.366-15.444 23.366 12.449 23.366-5.377 23.366-11.832 23.366-12.427 23.366 17.566 23.366.677 23.366 24.877 23.366 49.28 23.366 27.066 23.366-114.748 23.366 156.558 23.366 20.318 23.366 17.014 23.366-16.354 23.366-12.357" class="highcharts-graph" stroke="#83522E" stroke-width="2" stroke-linejoin="round" stroke-linecap="round"/>
        </g>
        <g class="highcharts-markers highcharts-series-0 highcharts-line-series highcharts-color-undefined">
            <path fill="#83522E" d="M54 115a4 4 0 1 1 0-.004zm23-4a4 4 0 1 1 0-.004zm23 37a4 4 0 1 1 0-.004zm24-16a4 4 0 1 1 0-.004zm23 13a4 4 0 1 1 0-.004zm24-6a4 4 0 1 1 0-.004zm23-12a4 4 0 1 1 0-.004zm23-12a4 4 0 1 1 0-.004zm24 17a4 4 0 1 1 0-.004zm23 1a4 4 0 1 1 0-.004zm23 25a4 4 0 1 1 0-.004zm24 49a4 4 0 1 1 0-.004zm23 27a4 4 0 1 1 0-.004zm23-114a4 4 0 1 1 0-.004zm24 156a4 4 0 1 1 0-.004zm23 21a4 4 0 1 1 0-.004zm24 17a4 4 0 1 1 0-.004zm23-17a4 4 0 1 1 0-.004zm23-12a4 4 0 1 1 0-.004z" class="highcharts-point"/>
        </g>
    </g>
    <text x="10" class="highcharts-title" y="21" color="#000" font-size="14" font-weight="700">
        <tspan>Leerwohnungsquote</tspan>
    </text>
    <g class="highcharts-data-labels highcharts-series-0 highcharts-line-series highcharts-color-undefined">
        <text x="5" y="16" font-size="11" font-weight="700" color="#000" transform="translate(41 122)" class="highcharts-label highcharts-data-label highcharts-data-label-color-undefined">
            <tspan x="5" y="16" class="highcharts-text-outline" fill="#FFF" stroke="#FFF" stroke-width="2" stroke-linejoin="round">1,5</tspan><tspan x="5" y="16">1,5</tspan>
        </text>
        <text x="5" y="16" font-size="11" font-weight="700" color="#000" transform="translate(455 292)" class="highcharts-label highcharts-data-label highcharts-data-label-color-undefined">
            <tspan x="5" y="16" class="highcharts-text-outline" fill="#FFF" stroke="#FFF" stroke-width="2" stroke-linejoin="round">0,4</tspan><tspan x="5" y="16">0,4</tspan>
        </text>
    </g>
    <g class="highcharts-axis-labels highcharts-xaxis-labels" text-anchor="middle" color="#000" cursor="default" font-size="11">
        <text x="50.206" y="368">
            1998
        </text>
        <text x="96.938" y="368">
            2000
        </text>
        <text x="143.67" y="368">
            2002
        </text>
        <text x="190.402" y="368">
            2004
        </text>
        <text x="237.134" y="368">
            2006
        </text>
        <text x="283.866" y="368">
            2008
        </text>
        <text x="330.598" y="368">
            2010
        </text>
        <text x="377.33" y="368">
            2012
        </text>
        <text x="424.062" y="368">
            2014
        </text>
        <text x="462.781" y="368">
            2016
        </text>
    </g>
    <g class="highcharts-axis-labels highcharts-yaxis-labels" text-anchor="end" color="#000" cursor="default" font-size="11">
        <text x="31" y="354">
            <tspan>0.00</tspan>
        </text>
        <text x="31" y="277">
            <tspan>0.50</tspan>
        </text>
        <text x="31" y="200">
            <tspan>1.00</tspan>
        </text>
        <text x="31" y="123">
            <tspan>1.50</tspan>
        </text>
        <text x="31" y="46">
            <tspan>2.00</tspan>
        </text>
    </g>
    <text x="10" class="highcharts-credits" y="400" cursor="default" color="#000" font-size="10">
        <tspan>Quelle: Statistisches Amt Basel-Stadt, kantonale Leerstandserhebung</tspan>
    </text>
</svg>
